storage/app/icons/phosphoricons/bold/suitcase-simple-bold.svg

<svg xmlns="http://www.w3.org/2000/svg" fill="currentColor" viewBox="0 0 256 256"><path d="M216 48h-36v-8a28 28 0 0 0-28-28h-48a28 28 0 0 0-28 28v8H40a20 20 0 0 0-20 20v128a20 20 0 0 0 20 20h176a20 20 0 0 0 20-20V68a20 20 0 0 0-20-20m-116-8a4 4 0 0 1 4-4h48a4 4 0 0 1 4 4v8h-56Zm112 32v64H44V72ZM44 192v-32h168v32Z"/></svg>

<svg xmlns="http://www.w3.org/2000/svg" viewBox="0 0 256 256" fill="currentColor"><path d="M216,48H180V40a28,28,0,0,0-28-28H104A28,28,0,0,0,76,40v8H40A20,20,0,0,0,20,68V196a20,20,0,0,0,20,20H216a20,20,0,0,0,20-20V68A20,20,0,0,0,216,48ZM100,40a4,4,0,0,1,4-4h48a4,4,0,0,1,4,4v8H100ZM212,72v64H44V72ZM44,192V160H212v32Z"/></svg>
